X:1
T:Title
%%score { ( 1 3 ) | ( 2 4 ) }
L:1/8
M:6/8
K:Eb
V:1 treble nm="Grand Piano"
V:3 treble 
V:2 bass 
V:4 bass 
V:1
 z3 z2[Q:1/4=100] E | G>GG E>FG | [GB]2 [AB] B2 G | [DB]2 [DB] [DF]>[EG][FA] | G3- G2 E | %5
 G>GG z z/ F/G | B2 B [GB]2 G | F2 e d>dc |[M:5/8] [DB]-[DB]- [DB]3 |[M:1/8] B | %10
[M:3/4] [Ge]2 z2 z2 | [Ad]6 | [Ac]2 z .[Ac]3 | [GB]6 | [GB]2 G G2 B |[M:7/8] A2 c e3 [EAc] | %16
[M:3/4] [EGB]2 [EGc][B,EG]- [B,EG]/[B,EG]/[A,DF] | [G,E]6 |] %18
V:2
 z3 z2 [E,G,] | [E,B,E]>[E,B,E][E,B,E] [E,G,]>[E,A,E][E,B,E] | [E,E]2 [F,D] [G,E]2 [E,B,E] | %3
 [B,,B,]2 [B,,B,] [B,,B,]>[B,,B,][B,,B,] | [E,B,E]3- [E,B,E]2 [E,G,] | %5
 [E,B,E]>[E,B,E][E,B,E] [E,G,]>[E,A,][E,B,E] | [G,B,E]2 [F,D] [E,E]2 [E,B,E] | %7
 [F,B,D]2 [F,CF] [F,B,F]>[F,B,F][F,=A,E] |[M:5/8] [B,,B,]-[B,,B,]- [B,,B,]3 |[M:1/8] [B,A] | %10
[M:3/4] [E,B,]2 [E,B,] [E,B,]2 [E,B,] | [F,B,]>F, F, F,2 [F,B,] | B,,>B,, .B,,2 z/ A/B,, | %13
 E,>E, E, E,2 [E,E] | [E,E]2 [E,B,E] [E,B,E]2 [E,_DE] |[M:7/8] [A,CE]2 [A,E] [A,CE]3 A,, | %16
[M:3/4] B,,2 B,,B,,- B,,/B,,/B,, | E,6 |] %18
V:3
 x6 | x6 | x6 | x6 | x6 | z3 .E3 | z2 A- A z z | x6 |[M:5/8] x5 |[M:1/8] x | %10
[M:3/4] z z/ [E,B,]/ [Ge][Ge]- [Ge]/[Bd]/[Ac] | z z/ B,/ B, B,2 [Ad] | D>D [DAc]F- F/-[Fd]/[FAc] | %13
 E>E E E2 [GB] | x6 |[M:7/8] x7 |[M:3/4] x6 | x6 |] %18
V:4
 x6 | x6 | x6 | x6 | x6 | x6 | x6 | x6 |[M:5/8] x5 |[M:1/8] x |[M:3/4] x6 | x6 | z2 z .B,,3 | x6 | %14
 x6 |[M:7/8] x7 |[M:3/4] x6 | x6 |] %18

